assets/images/bl_solution_cb.svg

<svg width="41" height="41" viewBox="0 0 41 41" fill="none" xmlns="http://www.w3.org/2000/svg">
<rect x="5.41504" y="6.18945" width="30.9434" height="30.1698" fill="white"/>
<path d="M34.5311 0H6.51444C2.91556 0 0 2.91556 0 6.51444V34.5311C0 38.0844 2.91556 41 6.51444 41H34.5311C38.0844 41 41 38.0844 41 34.5311V6.51444C41 2.91556 38.0844 0 34.5311 0ZM32.4356 16.3544L19.1333 29.6567C18.6778 30.1122 18.0856 30.34 17.5389 30.34C16.9922 30.34 16.3544 30.1122 15.9444 29.6567L8.56444 22.2767C7.65333 21.3656 7.65333 19.9533 8.56444 19.0422C9.47556 18.1311 10.8878 18.1311 11.7989 19.0422L17.5844 24.8278L29.2922 13.12C30.2033 12.2089 31.6156 12.2089 32.5267 13.12C33.3467 14.0311 33.3467 15.4889 32.4356 16.3544Z" fill="black"/>
</svg>

<svg width="41" height="41" fill="none" xmlns="http://www.w3.org/2000/svg"><path fill="#fff" d="M5.415 6.189h30.943v30.17H5.415z"/><path d="M34.531 0H6.514A6.513 6.513 0 000 6.514v28.017C0 38.084 2.916 41 6.514 41h28.017C38.084 41 41 38.084 41 34.531V6.514C41 2.916 38.084 0 34.531 0zm-2.095 16.354L19.133 29.657a2.288 2.288 0 01-1.594.683c-.547 0-1.185-.228-1.595-.683l-7.38-7.38a2.255 2.255 0 010-3.235 2.255 2.255 0 013.235 0l5.785 5.786L29.292 13.12a2.255 2.255 0 013.235 0c.82.911.82 2.369-.091 3.234z" fill="#000"/></svg>
